X:1
T:Wenn Meine Sünd, 76.76.87.6
T:Wenn Meine Sünd, 76.76.87.6
T:Michael Praetorius, 1609
T:Public Domain Courtesy of the Cyber Hymnal™
C:Michael Praetorius, 1609
Z:Public Domain
Z:Courtesy of the Cyber Hymnal™
%%score ( 1 2 ) ( 3 4 )
L:1/8
Q:1/4=170
M:6/4
K:C
V:1 treble 
V:2 treble 
V:3 bass 
V:4 bass 
V:1
 [CA]4 | [_B,F]4 [CA]2 [CA]4 [Ec]2 | [D_B]4 [^CA]4 z2 [=CE]2 | [DG]4 [EG]2 [B,D]4 [^CE]2 | %4
 ([DF]4 [^CE]4) z2 [FA]2 | [Fc]4 [D_B]2 [CA]4 [A,F]2 | [CG]4 [A,F]4 z2 [CA]2 | %7
 [EG]4 [DF]2 [DG]4 [DG]2 | ([^CE]4 D4) z4 | [A,F]2 [CE]2 [CF]2 [_B,G]4 [CA]2 | %10
 [DF]4 [DG]2 [^CA]4 z2 | [Ec]2 [EB]2 [EA]2 [EG]4 [CA]2 | ([EG]4 [DF]2) [^CE]2 z2 [CA]2 | %13
 [DF]4 [_B,G]2 [DA]4 [^CA]2 | ([^CE]4 D4) |] %15
V:2
 x4 | x12 | x12 | x12 | x12 | x12 | x12 | x12 | x4 D4 x4 | x12 | x12 | x12 | x12 | x12 | x4 D4 |] %15
V:3
 [A,,E,]4 | [_B,,D,]4 [F,,F,]2 F,4 [C,G,]2 | [G,,G,]4 [A,,E,]4 z2 [A,,A,]2 | %3
 [B,,G,]4 [C,G,]2 G,4 [E,G,]2 | A,8 z2 [F,,C]2 | [A,,C]4 [_B,,F,]2 [C,E,]4 [D,F,]2 | %6
 (F,2 E,2) [F,,F,]4 z2 F,2 | [C,C]4 [D,A,]2 [G,,_B,]4 [_B,,G,]2 | ([A,,A,]4 [D,^F,]4) z4 | %9
 [D,F,]2 [C,G,]2 [A,,A,]2 [G,,D,]4 [F,,F,]2 | [_B,,F,]4 [B,,D,]2 [A,,E,]4 z2 | %11
 A,2 [^G,B,]2 [A,C]2 [E,B,]4 [F,A,]2 | ([C,C]4 [D,A,]2) [A,,A,]2 z2 [A,,E,]2 | %13
 [_B,,D,]4 [G,,D,]2 [D,F,]4 [A,,E,]2 | ([A,,A,]4 [D,^F,]4) |] %15
V:4
 x4 | x6 F,4 x2 | x12 | x6 G,4 x2 | (D,4 A,,4) x4 | x12 | C,4 x4 F,2 x2 | x12 | x12 | x12 | x12 | %11
 A,2 x10 | x12 | x12 | x8 |] %15

